assets/images/icon--facebook-black.svg

<?xml version="1.0" encoding="UTF-8" standalone="no"?>
<svg width="15px" height="15px" viewBox="0 0 15 15" version="1.1" xmlns="http://www.w3.org/2000/svg" xmlns:xlink="http://www.w3.org/1999/xlink" xmlns:sketch="http://www.bohemiancoding.com/sketch/ns">
    <!-- Generator: Sketch 3.5.2 (25235) - http://www.bohemiancoding.com/sketch -->
    <title>icon--facebook</title>
    <desc>Created with Sketch.</desc>
    <defs></defs>
    <g id="assets" stroke="none" stroke-width="1" fill="none" fill-rule="evenodd" sketch:type="MSPage">
        <path d="M0.827856752,0 C0.370540364,0 0,0.370540364 0,0.827856752 L0,14.1721432 C0,14.6293472 0.370540364,15 0.827856752,15 L8.01194482,15 L8.01194482,9.19123322 L6.05718,9.19123322 L6.05718,6.92741313 L8.01194482,6.92741313 L8.01194482,5.25793011 C8.01194482,3.32047554 9.19527977,2.26550616 10.9236064,2.26550616 C11.7514631,2.26550616 12.4630378,2.32715985 12.6703673,2.35469887 L12.6703673,4.37943528 L11.4716891,4.3799973 C10.5317092,4.3799973 10.3497269,4.82663529 10.3497269,5.48206404 L10.3497269,6.92741313 L12.5914595,6.92741313 L12.2995459,9.19123322 L10.3497269,9.19123322 L10.3497269,15 L14.1721432,15 C14.6293472,15 15,14.6293472 15,14.1721432 L15,0.827856752 C15,0.370540364 14.6293472,0 14.1721432,0 L0.827856752,0 Z" id="icon--facebook" fill="#333333" sketch:type="MSShapeGroup"></path>
    </g>
</svg>

<svg width="15" height="15" viewBox="0 0 15 15" xmlns="http://www.w3.org/2000/svg"><title>icon--facebook</title><path d="M.828 0A.828.828 0 0 0 0 .828v13.344c0 .457.37.828.828.828h7.184V9.191H6.057V6.927h1.955v-1.67c0-1.937 1.183-2.991 2.912-2.991.827 0 1.539.061 1.746.089v2.024l-1.198.001c-.94 0-1.122.447-1.122 1.102v1.445h2.241L12.3 9.191h-1.95V15h3.822c.457 0 .828-.37.828-.828V.828A.828.828 0 0 0 14.172 0H.828z" fill="#333" fill-rule="evenodd"/></svg>
